X:1
T:Title
%%score { ( 1 4 ) | ( 2 3 ) }
L:1/8
Q:1/4=120
M:6/4
K:C
V:1 treble nm="Grand Piano"
V:4 treble 
V:2 bass 
V:3 bass 
V:1
 [CE]4 [DF]2 [EG]4 [Gc]2 | [Ac]2 [GB]2 [FA]2 [EG]6 | [CE]4 [DF]2 [FA]2 G2 [G,CE]2 | [CE]6 .D6 | %4
w: W.~H.~Doane * * *||||
 [G,CE]4 [G,DF]2 [CEG]4 [CGc]2 | [Ac]2 B2 A2 c6 | G4 c2 B2 A2 [FB]2 | [Ec]12 | d6 G6 | %9
w: |||||
 B2 A2 G2 [Ec]4 [EG]2 | [Ge]6 [EGc]6 |[M:7/4] c2 B2 c2 d6 z2 | %12
w: |||
[M:6/4] [Ge]2 [Fd]2 [Ec]2 [CGB]4 [CFA]2 | [CAc]2 [CGB]2 [CFA]2 [CFA]4 [CEG]2 | %14
w: ||
 [CF]2 [CEG]2 [CFA]2 [CG]4 [EGc]2 | [DFB]2 [CFA]2 [DFB]2 [CEc]6 |] %16
w: ||
V:2
 [C,G,]4 [C,G,]2 [C,C]4 [E,C]2 | [F,C]4 [F,C]2 [C,C]6 | z6 .[C,C]6 | z6 .B,6 | C,4 C,2 C,4 E,2 | %5
 z2[K:treble] G2 [F,CF]2 [F,A,F]6 | [G,CE]4 [G,E]2[K:bass] [G,,G,]4 [G,,G,]2 | [C,G,]12 | %8
 [G,B,F]6 [G,B,F]6 | [G,DF]2 [G,CF]2 [G,B,F]2[K:bass] [C,C]4 [C,C]2 | [C,C]6 C,6 | %11
[M:7/4][K:treble] [G,EG]2 [G,DF]2 [G,CE]2 [G,B,G]6 z2 | %12
[M:6/4][K:bass] [C,C]2 [C,C]2 [C,C]2 F,4 F,2 | F,2 F,2 F,2 C,4 C,2 | A,2 G,2 F,2 E,4 C,2 | %15
 G,2 G,2 G,2 C,6 |] %16
V:3
 x12 | x12 | [C,G,]4 [C,G,]2 z2 E2 C,2 | G,,12 | x12 | .F,6[K:treble] z6 | x6[K:bass] x6 | x12 | %8
 x12 | x6[K:bass] x6 | x12 |[M:7/4][K:treble] x14 |[M:6/4][K:bass] x12 | x12 | x12 | x12 |] %16
V:4
 x12 | x12 | x12 | G,12 | x12 | .C6 z6 | z6 .F6 | x12 | x12 | x12 | x12 |[M:7/4] x14 |[M:6/4] x12 | %13
 x12 | x12 | x12 |] %16

